X:3
T:George Marshall at Waterloo
M:C|
L:1/8
C:T. S. Macdonald
K:Cm
e  | c2 G>c E<cG>c | B>df>b f<Bd>=B | c2 G>c E>cC<E | F<D (G/F/)E/D/ E<CC>e |
     c2 G>c E>cG<c | B>df>b (f/e/)d/c/ B>f | g>ec<g f>dB<f | e>c (e/d/)c/=B/ c2 c ||
=B | c<CC>D E>DC<E | F>DB,<F D<B,B,>=B | c<CC>D E>DC<E | F>D (G/F/)E/D/ E<CC>=B | 
     c<CC>D E>DC<E | D<B,F<B, G<B,D>F | G>ce<g f<dB<f | e>c (e/d/)c/=B/ !turn!c3 |]

